X:1
T:we're marching to zion
T:we're marching to zion
T:robert lowry
C:robert lowry
%%score { ( 1 2 ) | 3 }
L:1/8
M:6/8
K:G
V:1 treble nm="Piano" snm="Pno."
V:2 treble 
V:3 bass 
V:1
 G | B3 G3 | z2 F G2 A | B2 G dcB | A3- A2 A | B2 B c2 B | A2 G E2 G | A2 A B2 A | G2 E D2 | D | %10
 G3 A3 | B2 d c2 A | G2 G A2 F | G3- G2 |] B | d3 B2 B | B3 G3 | B>AG d>cB | A3 d2 c | B2 B Bcd | %20
 d3 edc | B>BB A<AA | G3- G2 |] G | B3 G3 | DEF G2 A | B2 G dcB | A3- A2 A | B2 B c2 B | %29
 A2 G E2 G | A2 A B2 A | G2 E D2 | D | G3 A3 | B2 d c2 A | G2 G A2 F | G3- G2 |] B | d3 B2 B | %39
 B3 G3 | B>AG d>cB | A3 d2 c | B2 B Bcd | d3 edc | B>BB A<AA | G3- G2 |] D | B3 G3 | DEF G2 A | %49
 B2 G dcB | A3 A2 A | B2 B c2 B | A2 G E2 G | A2 A B2 A | G2 E D2 | D | G3 A3 | B2 d c2 A | %58
 G2 G A2 F | G3- G2 |] B | d3 B2 B | B3 G3 | B>AG d>cB | A3 d2 c | B2 B Bcd | d3 edc | B>BB A<AA | %68
 G3- G2 |] G | B3 G3 | DEF G2 A | B2 G dcB | A3 A2 A | B2 B c2 B | A2 G E2 G | A2 A B2 A | %77
 G2 E D2 | D | G3 A3 | B2 d c2 A | G2 G A2 F | G3- G2 |] B | d3 B2 B | B3 G3 | B>AG d>cB | %87
 A3 d2 c | B2 B Bcd | d3 edc | B>BB A<AA | G3- G2 |] G6 | G6 |] %94
V:2
 D | G3 D3 | DED D2 F | G2 D BAG | F3- F2 F | G2 G G2 G | E2 E E2 D | F2 F G2 F | E2 ^C D2 | D | %10
 D3 F3 | G2 B A2 E | D2 D D2 D | D3- D2 |] G | B3 G2 G | G3 D3 | G>DD G>GG | F3 F2 A | G2 G GGG | %20
 d3 edA | G>GG F<FF | G3- G2 |] D | G3 D3 | DED D2 F | G2 D BAG | F3- F2 F | G2 G G2 G | %29
 E2 E E2 D | F2 F G2 F | E2 ^C D2 | D | E3 F3 | G2 B A2 E | D2 D D2 D | D3- D2 |] G | B3 G2 G | %39
 G3 D3 | G>DD G>GG | F3 F2 A | G2 G GGG | d3 edA | G>GG F<FF | G3- G2 |] D | G3 D3 | DED D2 F | %49
 G2 D BAG | F3 F2 F | G2 G G2 G | E2 E E2 D | F2 F G2 F | E2 ^C D2 | D | E3 F3 | G2 B A2 E | %58
 D2 D D2 D | D3- D2 |] G | B3 G2 G | G3 D3 | G>DD G>GG | F3 F2 A | G2 G GGG | d3 edA | G>GG F<FF | %68
 G3- G2 |] D | G3 D3 | DED D2 F | G2 D BAG | F3 F2 F | G2 G G2 G | E2 E E2 D | F2 F G2 F | %77
 E2 ^C D2 | D | E3 F3 | G2 B A2 E | D2 D D2 D | D3- D2 |] G | B3 G2 G | G3 D3 | G>DD G>GG | %87
 F3 F2 A | G2 G GGG | d3 edA | G>GG F<FF | G3- G2 |] E6 | D6 |] %94
V:3
 [G,B,] | [G,D]3 [G,,B,]3 | [D,C]2 [D,C] [G,B,]2 [D,D] | [G,D]2 [G,B,] [G,D]2 [G,D] | %4
 [D,D]3- [D,D]2 [D,D] | [G,D]2 [G,D] [G,E]2 [G,D] | [C,C]2 [C,C] [C,G,]2 [G,,B,] | %7
 [D,D]2 [D,D] [D,D]2 [D,A,] | [A,,A,]2 [A,,G,] [D,F,]2 | [G,B,] | [G,B,]3 [D,D]3 | %11
 [G,D]2 [G,D] [C,E]2 [C,C] | [D,B,]3 [D,C]3 | [G,,B,]3- [G,,B,]2 |] [G,D] | %15
 [G,D]2 [G,D] [G,D]2 [G,D] | [G,D]3 [G,B,]3 | [G,D]>[G,C][G,B,] [G,B,]>[G,E][G,D] | %18
 [D,D]3 [D,A,]2 [D,D] | [G,D]2 [G,D] [G,D][G,C][G,B,] | [C,C]2 [C,C] [C,C][B,,D][C,E] | %21
 [D,D]>[D,D][D,D] [D,C]<[D,C][D,C] | [G,,B,]3- [G,,B,]2 |] [G,B,] | [G,D]3 [G,,B,]3 | %25
 [D,C]2 [D,C] [G,B,]2 [D,D] | [G,D]2 [G,B,] [G,D]2 [G,D] | [D,D]3- [D,D]2 [D,D] | %28
 [G,D]2 [G,D] [G,E]2 [G,D] | [C,C]2 [C,C] [C,G,]2 [G,,B,] | [D,D]2 [D,D] [D,D]2 [D,A,] | %31
 [A,,A,]2 [A,,G,] [D,F,]2 | [G,B,] | [G,B,]2 [G,B,] [D,D]2 [D,D] | [G,D]2 [G,D] [C,E]2 [C,C] | %35
 [D,B,]3 [D,C]3 | [G,,B,]3- [G,,B,]2 |] [G,D] | [G,D]2 [G,D] [G,D]2 [G,D] | [G,D]3 [G,B,]3 | %40
 [G,D]>[G,C][G,B,] [G,B,]>[G,E][G,D] | [D,D]3 [D,A,]2 [D,D] | [G,D]2 [G,D] [G,D][G,C][G,B,] | %43
 [C,C]2 [C,C] [C,C][B,,D][C,E] | [D,D]>[D,D][D,D] [D,C]<[D,C][D,C] | [G,,B,]3- [G,,B,]2 |] [G,B,] | %47
 [G,D]3 [G,,B,]3 | [D,C]2 [D,C] [G,B,]2 [D,D] | [G,D]2 [G,B,] [G,D]2 [G,D] | [D,D]3 [D,D]2 [D,D] | %51
 [G,D]2 [G,D] [G,E]2 [G,D] | [C,C]2 [C,C] [C,G,]2 [G,,B,] | [D,D]2 [D,D] [D,D]2 [D,A,] | %54
 [A,,A,]2 [A,,G,] [D,F,]2 | [G,B,] | [G,B,]2 [G,B,] [D,D]2 [D,D] | [G,D]2 [G,D] [C,E]2 [C,C] | %58
 [D,B,]3 [D,C]3 | [G,,B,]3- [G,,B,]2 |] [G,D] | [G,D]2 [G,D] [G,D]2 [G,D] | [G,D]3 [G,B,]3 | %63
 [G,D]>[G,C][G,B,] [G,B,]>[G,E][G,D] | [D,D]3 [D,A,]2 [D,D] | [G,D]2 [G,D] [G,D][G,C][G,B,] | %66
 [C,C]2 [C,C] [C,C][B,,D][C,E] | [D,D]>[D,D][D,D] [D,C]<[D,C][D,C] | [G,,B,]3- [G,,B,]2 |] [G,B,] | %70
 [G,D]3 [G,,B,]3 | [D,C]2 [D,C] [G,B,]2 [D,D] | [G,D]2 [G,B,] [G,D]2 [G,D] | [D,D]3 [D,D]2 [D,D] | %74
 [G,D]2 [G,D] [G,E]2 [G,D] | [C,C]2 [C,C] [C,G,]2 [G,,B,] | [D,D]2 [D,D] [D,D]2 [D,A,] | %77
 [A,,A,]2 [A,,G,] [D,F,]2 | [G,B,] | [G,B,]2 [G,B,] [D,D]2 [D,D] | [G,D]2 [G,D] [C,E]2 [C,C] | %81
 [D,B,]3 [D,C]3 | [G,,B,]3- [G,,B,]2 |] [G,D] | [G,D]2 [G,D] [G,D]2 [G,D] | [G,D]3 [G,B,]3 | %86
 [G,D]>[G,C][G,B,] [G,B,]>[G,E][G,D] | [D,D]3 [D,A,]2 [D,D] | [G,D]2 [G,D] [G,D][G,C][G,B,] | %89
 [C,C]2 [C,C] [C,C][B,,D][C,E] | [D,D]>[D,D][D,D] [D,C]<[D,C][D,C] | [G,,B,]3- [G,,B,]2 |] [C,C]6 | %93
 [G,,G,B,]6 |] %94

